src/asset/cabinet/crypto/LTC.svg

<svg width="56" height="56" viewBox="0 0 56 56" fill="none" xmlns="http://www.w3.org/2000/svg">
<g filter="url(#filter0_d)">
<rect x="8" y="4" width="40" height="40" rx="20" fill="url(#paint0_linear)"/>
</g>
<path d="M36 29.8899L35.18 32.9299H20.61L22.22 26.9199L20 27.7199L20.54 25.6799L22.59 24.9399C22.68 24.9099 22.75 24.8399 22.77 24.7299L25.36 15.0699H30.45L28.4 22.8299L31.24 21.7899L30.7 23.8299L28.01 24.8099C27.92 24.8399 27.85 24.9099 27.83 25.0199L26.52 29.8999H36V29.8899Z" fill="white"/>
<defs>
<filter id="filter0_d" x="0" y="0" width="56" height="56" filterUnits="userSpaceOnUse" color-interpolation-filters="sRGB">
<feFlood flood-opacity="0" result="BackgroundImageFix"/>
<feColorMatrix in="SourceAlpha" type="matrix" values="0 0 0 0 0 0 0 0 0 0 0 0 0 0 0 0 0 0 127 0"/>
<feOffset dy="4"/>
<feGaussianBlur stdDeviation="4"/>
<feColorMatrix type="matrix" values="0 0 0 0 0.486275 0 0 0 0 0.803922 0 0 0 0 1 0 0 0 0.3 0"/>
<feBlend mode="normal" in2="BackgroundImageFix" result="effect1_dropShadow"/>
<feBlend mode="normal" in="SourceGraphic" in2="effect1_dropShadow" result="shape"/>
</filter>
<linearGradient id="paint0_linear" x1="48" y1="4" x2="8" y2="44" gradientUnits="userSpaceOnUse">
<stop stop-color="#7AC4F2"/>
<stop offset="1" stop-color="#619ABE"/>
</linearGradient>
</defs>
</svg>

<svg width="56" height="56" fill="none" xmlns="http://www.w3.org/2000/svg"><g filter="url(#filter0_d)"><rect x="8" y="4" width="40" height="40" rx="20" fill="url(#paint0_linear)"/></g><path d="M36 29.89l-.82 3.04H20.61l1.61-6.01-2.22.8.54-2.04 2.05-.74c.09-.03.16-.1.18-.21l2.59-9.66h5.09l-2.05 7.76 2.84-1.04-.54 2.04-2.69.98c-.09.03-.16.1-.18.21l-1.31 4.88H36v-.01z" fill="#fff"/><defs><linearGradient id="paint0_linear" x1="48" y1="4" x2="8" y2="44" gradientUnits="userSpaceOnUse"><stop stop-color="#7AC4F2"/><stop offset="1" stop-color="#619ABE"/></linearGradient><filter id="filter0_d" x="0" y="0" width="56" height="56" filterUnits="userSpaceOnUse" color-interpolation-filters="sRGB"><feFlood flood-opacity="0" result="BackgroundImageFix"/><feColorMatrix in="SourceAlpha" values="0 0 0 0 0 0 0 0 0 0 0 0 0 0 0 0 0 0 127 0"/><feOffset dy="4"/><feGaussianBlur stdDeviation="4"/><feColorMatrix values="0 0 0 0 0.486275 0 0 0 0 0.803922 0 0 0 0 1 0 0 0 0.3 0"/><feBlend in2="BackgroundImageFix" result="effect1_dropShadow"/><feBlend in="SourceGraphic" in2="effect1_dropShadow" result="shape"/></filter></defs></svg>
